X: 2929
T: Barrel Of Monkeys, The
R: jig
M: 6/8
K: Adorian
|:~G3 BGG|deg edB|~G3 BAG|A3 dBA|
G2G BGG|deg edB|ABd edB|1 ~A3 A3:|2 ~A3 AB/c/d||
|:~e3 g2e|dBA ~G3|~e3 ged|gdB AB/c/d|
~e3 g2e|dBA GAB|cBA BdB|1 ~A3 AB/c/d:|2 ~A3 A3||

